X: 1
T: Emyvale, The
M: 4/4
L: 1/8
R: reel
K: Ador
eA A/2A/2A edBc|dBgB aBgB|eA A/2A/2A edBc|dBgB BAAf|
eA A/2A/2A edBc|dBgB aBgB|e/2f/2e df edBc|dBgB BAAf|
edef ~g2fg|edef gdBd|edef ~g2fg|edgd BAAf|
edef ~g2 e/2f/2g|ageg a2ga|bgaf gfed|B/2c/2d gd BAAf||
